src/amo/components/CategoryIcon/img/web-development.svg

<svg xmlns="http://www.w3.org/2000/svg" width="64" height="64" viewBox="0 0 64 64">
  <g class="one" fill="#0F1126">
    <path d="M23.0241314,34.9010545 L19.9559552,37.9692308 L23.0241314,41.037407 C23.5047767,41.5180523 23.5047767,42.2973323 23.0241314,42.7779776 C22.5434861,43.2586229 21.7642062,43.2586229 21.2835609,42.7779776 L17.3450993,38.839516 C16.8644541,38.3588708 16.8644541,37.5795908 17.3450993,37.0989455 L21.2835609,33.160484 C21.7642062,32.6798387 22.5434861,32.6798387 23.0241314,33.160484 C23.5047767,33.6411292 23.5047767,34.4204092 23.0241314,34.9010545 Z M40.9758686,41.037407 L44.0440448,37.9692308 L40.9758686,34.9010545 C40.4952233,34.4204092 40.4952233,33.6411292 40.9758686,33.160484 C41.4565139,32.6798387 42.2357938,32.6798387 42.7164391,33.160484 L46.6549007,37.0989455 C47.1355459,37.5795908 47.1355459,38.3588708 46.6549007,38.839516 L42.7164391,42.7779776 C42.2357938,43.2586229 41.4565139,43.2586229 40.9758686,42.7779776 C40.4952233,42.2973323 40.4952233,41.5180523 40.9758686,41.037407 Z M29.1623719,46.3965706 C28.8583852,47.0045441 28.1190953,47.2509741 27.5111217,46.9469873 C26.9031482,46.6430005 26.6567182,45.9037106 26.960705,45.2957371 L34.8376281,29.541891 C35.1416148,28.9339174 35.8809047,28.6874875 36.4888783,28.9914742 C37.0968518,29.295461 37.3432818,30.0347509 37.039295,30.6427244 L29.1623719,46.3965706 Z M10.3384615,13.8461538 C9.65872646,13.8461538 9.10769231,13.2951197 9.10769231,12.6153846 C9.10769231,11.9356495 9.65872646,11.3846154 10.3384615,11.3846154 L14.2769231,11.3846154 C14.9566582,11.3846154 15.5076923,11.9356495 15.5076923,12.6153846 C15.5076923,13.2951197 14.9566582,13.8461538 14.2769231,13.8461538 L10.3384615,13.8461538 Z M20.1846154,13.8461538 C19.5048803,13.8461538 18.9538462,13.2951197 18.9538462,12.6153846 C18.9538462,11.9356495 19.5048803,11.3846154 20.1846154,11.3846154 L24.1230769,11.3846154 C24.802812,11.3846154 25.3538462,11.9356495 25.3538462,12.6153846 C25.3538462,13.2951197 24.802812,13.8461538 24.1230769,13.8461538 L20.1846154,13.8461538 Z M42.8307692,13.8461538 C42.1510342,13.8461538 41.6,13.2951197 41.6,12.6153846 C41.6,11.9356495 42.1510342,11.3846154 42.8307692,11.3846154 L53.6615385,11.3846154 C54.3412735,11.3846154 54.8923077,11.9356495 54.8923077,12.6153846 C54.8923077,13.2951197 54.3412735,13.8461538 53.6615385,13.8461538 L42.8307692,13.8461538 Z"/>
  </g>
  <g class="two" fill="#0F1126">
    <path d="M4.92307692,21.2307692 L4.92307692,55.2 L59.0769231,55.2 L59.0769231,21.2307692 L4.92307692,21.2307692 Z M4.92307692,16.3076923 L59.0769231,16.3076923 L59.0769231,8.92307692 L4.92307692,8.92307692 L4.92307692,16.3076923 Z M2.46153846,4 L61.5384615,4 C62.8979317,4 64,5.10206831 64,6.46153846 L64,57.6615385 C64,59.0210086 62.8979317,60.1230769 61.5384615,60.1230769 L2.46153846,60.1230769 C1.10206831,60.1230769 0,59.0210086 0,57.6615385 L0,6.46153846 C0,5.10206831 1.10206831,4 2.46153846,4 Z"/>
  </g>
</svg>

<svg xmlns="http://www.w3.org/2000/svg" width="64" height="64"><path d="m23.024 34.901-3.068 3.068 3.068 3.068a1.23 1.23 0 0 1-1.74 1.741l-3.939-3.938a1.23 1.23 0 0 1 0-1.741l3.939-3.939a1.23 1.23 0 1 1 1.74 1.741Zm17.952 6.136 3.068-3.068-3.068-3.068a1.23 1.23 0 1 1 1.74-1.74l3.939 3.938c.48.48.48 1.26 0 1.74l-3.939 3.939a1.23 1.23 0 1 1-1.74-1.74Zm-11.814 5.36a1.23 1.23 0 1 1-2.201-1.101l7.877-15.754a1.23 1.23 0 1 1 2.201 1.1l-7.877 15.755Zm-18.824-32.55a1.23 1.23 0 1 1 0-2.462h3.939a1.23 1.23 0 1 1 0 2.461h-3.939Zm9.847 0a1.23 1.23 0 1 1 0-2.462h3.938a1.23 1.23 0 1 1 0 2.461h-3.938Zm22.646 0a1.23 1.23 0 0 1 0-2.462h10.83a1.23 1.23 0 0 1 0 2.461h-10.83Z" class="one" fill="#0F1126"/><path d="M4.923 21.23V55.2h54.154V21.23H4.923Zm0-4.922h54.154V8.923H4.923v7.385ZM2.462 4h59.076A2.462 2.462 0 0 1 64 6.462v51.2a2.462 2.462 0 0 1-2.462 2.461H2.462A2.462 2.462 0 0 1 0 57.662v-51.2A2.462 2.462 0 0 1 2.462 4Z" class="two" fill="#0F1126"/></svg>
